X:1
N: Anna Holden's Strathspey
N: 8 x 32S 2C (RSCDS Book 42)
T: The 60th Summer School
R: strathspey
C: Muriel Johnstone
C: Arr. T. Traub 2-25-2004
M: 4/4
L: 1/8
%
K: G
R: strathspey
|: D|"G"G2 G>F "Em"G2 (3GAB|"Am"c>BA>G "D7"F<AA>d|"G"G2 G>F "Em"G2 (3GAB|"Am"c>Bc<e "D7"d2 E>F|"G"G2 G>F "Em"G2 (3GAB|
"Am"c>BA>G "C"E<GG>E|"G"D>EG<B "C"c>Bc<e|"D"d<DE>F "G"G2||z a|"Em"g>fg>e "Bm"d<BB>d|"Am"c>B"D7"c>A "G"B<dd>a|
"Em"g>f"C"g>e "G"d<G (3GAB|"Am"c>BA<G "D7"d2-d>a|"Em"g>f "C"g>e "G"d<G (3GAB|"Am"c>BA>G "C"E<GG>E|"G"D>E G<B "C"c>B c<e|"D"d<DE>F "G"G2 |]
